markup/src/img/partner-logo-4.svg

<svg width="192" height="32" viewBox="0 0 192 32" fill="none" xmlns="http://www.w3.org/2000/svg">
<path d="M24.4311 7.99997C25.5098 10.3466 26.157 12.64 26.157 14.88C26.157 20.8533 22.3278 24.32 19.6851 26.0266C19.739 26.0266 19.8469 26.0266 19.8469 26.0266C25.2401 25.6533 28.8536 23.7333 31.0109 20.2133L31.4963 19.4133C32.7367 17.0133 33.3839 13.8133 33.3839 9.97331C33.3839 8.42664 33.2761 6.71997 33.0603 5.01331C31.2266 5.54664 26.7502 6.93331 24.4311 7.99997Z" fill="#ACCD72"/>
<path d="M7.87394 14.88C7.87394 12.6933 8.4672 10.3466 9.59978 7.99997C7.28068 6.93331 2.80428 5.54664 0.970568 5.01331C0.754838 6.77331 0.646973 8.42664 0.646973 9.97331C0.646973 13.8133 1.29416 17.0133 2.53461 19.4133L2.75034 19.7866L3.02001 20.2133C5.17731 23.7333 8.79079 25.6533 14.184 26.0266H14.3458C11.7032 24.32 7.87394 20.8533 7.87394 14.88Z" fill="#AECF7A"/>
<path d="M16.9887 0.266663C15.2629 1.86666 9.27637 7.89333 9.27637 14.88C9.27637 22.1867 15.6943 25.44 16.9887 26.0267C18.2831 25.44 24.7011 22.1867 24.7011 14.88C24.7011 7.89333 18.7146 1.86666 16.9887 0.266663Z" fill="#51AD32"/>
<path d="M17.0427 31.7333C25.2944 31.7333 32.2517 29.3866 34.0854 27.3066H0C1.83371 29.3866 8.79101 31.7333 17.0427 31.7333Z" fill="#AADAEA"/>
<path d="M42.2293 16.6934V2.93335H37.0518V16.6934H42.2293ZM50.427 4.96002C50.6428 5.06669 50.7506 5.28002 50.7506 5.60002V13.9734C50.7506 14.24 50.6428 14.4534 50.427 14.56C50.2113 14.6667 49.8338 14.72 49.2945 14.72H49.0248V4.80002C49.7259 4.80002 50.2113 4.85335 50.427 4.96002ZM49.5641 16.6934C51.8832 16.6934 53.5012 16.4267 54.472 15.8934C55.4428 15.36 55.9282 14.5067 55.9282 13.28V6.34669C55.9282 5.12002 55.4428 4.21335 54.5798 3.73335C53.663 3.25335 52.099 2.98669 49.8877 2.98669H43.8473V16.7467L49.5641 16.6934ZM64.072 8.26669C63.8563 8.37335 63.4787 8.42669 62.9394 8.42669H62.6697V4.69335C63.3709 4.69335 63.8023 4.74669 64.072 4.85335C64.2877 4.96002 64.3956 5.17335 64.3956 5.49335V7.68002C64.3956 7.94669 64.2877 8.16002 64.072 8.26669ZM62.6697 16.6934V10.3467H62.7237C63.263 10.3467 63.6945 10.4534 63.9641 10.6134C64.2338 10.8267 64.3956 11.0934 64.3956 11.4667V14.4534V14.9334C64.3956 15.2534 64.4495 15.5734 64.5034 15.84C64.6113 16.1067 64.7192 16.3734 64.881 16.64H70.0046C69.8428 16.3734 69.7349 16.1067 69.627 15.84C69.5192 15.5734 69.5192 15.2534 69.5192 14.9867V11.52C69.5192 10.72 69.1956 10.1334 68.6563 9.81335C68.063 9.49335 67.0383 9.28002 65.5282 9.22669V9.17335C66.8765 9.12002 67.8473 8.90669 68.4945 8.53335C69.1417 8.16002 69.5192 7.57335 69.5192 6.88002V5.44002C69.5192 4.58669 69.0338 3.94669 68.1169 3.52002C67.1461 3.14669 65.636 2.93335 63.5327 2.93335H57.4922V16.6934H62.6697ZM70.8136 13.44C70.8136 14.72 71.299 15.6267 72.2158 16.16C73.1327 16.6934 74.6967 16.96 76.854 16.96C79.0113 16.96 80.5754 16.6934 81.4922 16.16C82.4091 15.6267 82.8945 14.72 82.8945 13.44V6.18669C82.8945 4.90669 82.4091 4.00002 81.4922 3.46669C80.5754 2.93335 79.0113 2.66669 76.854 2.66669C74.6967 2.66669 73.1327 2.93335 72.2158 3.46669C71.299 4.00002 70.8136 4.90669 70.8136 6.18669V13.44ZM76.1529 4.74669C76.3147 4.64002 76.5304 4.58669 76.8001 4.58669C77.1237 4.58669 77.3394 4.64002 77.5012 4.74669C77.663 4.85335 77.7169 5.01335 77.7169 5.22669V14.1867C77.7169 14.4 77.663 14.6134 77.5012 14.72C77.3394 14.8267 77.1237 14.88 76.8001 14.88C76.4765 14.88 76.2607 14.8267 76.1529 14.72C75.9911 14.6134 75.9372 14.4534 75.9372 14.1867V5.28002C75.9911 5.06669 76.045 4.85335 76.1529 4.74669ZM91.0383 9.22669C90.8226 9.33335 90.445 9.38669 89.9057 9.38669H89.5821V4.69335H89.7978C90.3911 4.69335 90.8225 4.74669 90.9843 4.85335C91.2001 4.96002 91.3079 5.17335 91.3079 5.49335V8.69335C91.3619 8.96002 91.254 9.12002 91.0383 9.22669ZM89.636 16.6934V11.36H90.2293C92.4945 11.36 94.1124 11.1467 95.0832 10.6667C96.054 10.1867 96.5394 9.44002 96.5394 8.37335V5.44002C96.5394 4.58669 96.054 3.94669 95.0832 3.57335C94.1124 3.20002 92.6023 2.98669 90.499 2.98669H84.4585V16.7467H89.636V16.6934ZM97.6181 13.44C97.6181 14.72 98.1035 15.6267 99.0203 16.16C99.9372 16.6934 101.501 16.96 103.659 16.96C105.816 16.96 107.38 16.6934 108.297 16.16C109.214 15.6267 109.699 14.72 109.699 13.44V6.18669C109.699 4.90669 109.214 4.00002 108.297 3.46669C107.38 2.93335 105.816 2.66669 103.659 2.66669C101.501 2.66669 99.9372 2.93335 99.0203 3.46669C98.1035 4.00002 97.6181 4.90669 97.6181 6.18669V13.44ZM103.011 4.74669C103.173 4.64002 103.389 4.58669 103.659 4.58669C103.982 4.58669 104.252 4.64002 104.36 4.74669C104.521 4.85335 104.575 5.01335 104.575 5.22669V14.1867C104.575 14.4 104.521 14.6134 104.36 14.72C104.198 14.8267 103.982 14.88 103.659 14.88C103.335 14.88 103.119 14.8267 103.011 14.72C102.85 14.6134 102.796 14.4534 102.796 14.1867V5.28002C102.796 5.06669 102.85 4.85335 103.011 4.74669ZM115.362 16.6934V8.53335C115.362 8.26669 115.362 7.89335 115.308 7.46669C115.254 7.04002 115.2 6.56002 115.146 5.97335H115.308C115.47 6.66669 115.632 7.30669 115.793 7.89335C115.955 8.48002 116.063 8.90669 116.171 9.22669L118.814 16.6934H124.908V2.93335H120.863L120.917 8.64002C120.917 8.96002 120.917 9.49335 120.971 10.1867C121.025 10.9334 121.079 11.7334 121.133 12.7467H120.917C120.809 11.8934 120.755 11.2 120.593 10.5067C120.485 9.86669 120.324 9.28002 120.162 8.74669L118.328 2.93335H111.209V16.6934H115.362ZM131.703 16.6934V2.93335H126.526V16.6934H131.703ZM133.268 13.44C133.268 14.72 133.753 15.6267 134.67 16.16C135.587 16.6934 137.151 16.96 139.308 16.96C141.465 16.96 143.029 16.6934 143.946 16.16C144.863 15.6267 145.348 14.72 145.348 13.44V11.4667H140.171V14.24C140.171 14.4534 140.117 14.6667 139.955 14.7734C139.793 14.88 139.578 14.9334 139.254 14.9334C138.93 14.9334 138.715 14.88 138.607 14.7734C138.499 14.6667 138.391 14.5067 138.391 14.24V5.28002C138.391 5.06669 138.445 4.85335 138.607 4.80002C138.715 4.69335 138.93 4.64002 139.254 4.64002C139.578 4.64002 139.793 4.69335 139.955 4.80002C140.063 4.90669 140.171 5.06669 140.171 5.28002V7.73335H145.348V6.24002C145.348 4.96002 144.863 4.05335 143.946 3.52002C143.029 2.98669 141.465 2.72002 139.308 2.72002C137.151 2.72002 135.641 2.98669 134.67 3.52002C133.753 4.05335 133.268 4.96002 133.268 6.24002V13.44ZM150.796 16.6934L151.443 13.0134H154.032L154.517 16.6934H159.856L156.782 2.93335H150.148L145.996 16.6934H150.796ZM152.683 6.82669C152.683 6.72002 152.737 6.50669 152.791 6.18669C152.845 5.86669 152.845 5.44002 152.899 4.90669H153.115C153.115 5.06669 153.115 5.28002 153.115 5.54669C153.115 6.18669 153.169 6.61335 153.223 6.82669L153.816 11.04H151.874L152.683 6.82669Z" fill="#43A3DB"/>
<path d="M164.818 13.9734V16.8001H161.043V13.9734H164.818Z" fill="#39A3DC"/>
<path d="M171.506 2.98669V16.8H166.328V2.98669H171.506Z" fill="#39A3DC"/>
<path d="M184.018 2.98669V5.76003H180.944V16.8H175.767V5.76003H172.692V2.98669H184.018Z" fill="#39A3DC"/>
<path d="M176.521 29.3333H37.0518V19.04H183.802L176.521 29.3333Z" fill="#D40A5C"/>
<path d="M50.4268 26.6133H47.1369V25.8133L48.2156 24.6933C48.5392 24.3733 48.7549 24.16 48.8088 24C48.8628 23.84 48.9706 23.7867 49.0246 23.68C49.0785 23.5733 49.0785 23.52 49.0785 23.4133C49.0785 23.3067 49.0246 23.2 48.9706 23.1467C48.9167 23.0933 48.8088 23.04 48.647 23.04C48.4852 23.04 48.3774 23.0933 48.2156 23.1467C48.0538 23.2533 47.892 23.36 47.7302 23.52L47.083 22.72C47.2987 22.5067 47.5145 22.3467 47.6763 22.2933C47.8381 22.1867 47.9999 22.1333 48.2156 22.08C48.4313 22.0267 48.5931 22.0267 48.8628 22.0267C49.1324 22.0267 49.4021 22.08 49.6718 22.1867C49.8875 22.2933 50.1032 22.4533 50.2111 22.6133C50.319 22.8267 50.4268 23.04 50.4268 23.2533C50.4268 23.4133 50.4268 23.5733 50.3729 23.7333C50.319 23.8933 50.265 24.0533 50.1572 24.16C50.0493 24.32 49.9414 24.48 49.7796 24.64C49.6178 24.8 49.2942 25.12 48.8088 25.5467V25.6H50.5347V26.6133H50.4268Z" fill="#FEFEFE"/>
<path d="M56.3055 24.3734C56.3055 25.1734 56.1976 25.76 55.928 26.1333C55.6583 26.5067 55.2269 26.6667 54.6875 26.6667C54.1482 26.6667 53.7167 26.4534 53.4471 26.08C53.1774 25.7067 53.0156 25.12 53.0156 24.3734C53.0156 23.5734 53.1235 22.9867 53.3932 22.6134C53.6628 22.24 54.0943 22.08 54.6336 22.08C55.1729 22.08 55.6044 22.2933 55.874 22.6667C56.1976 23.04 56.3055 23.6267 56.3055 24.3734ZM54.2561 24.3734C54.2561 24.8534 54.31 25.2267 54.3639 25.44C54.4179 25.6534 54.5257 25.7067 54.6875 25.7067C54.8493 25.7067 54.9572 25.6 55.0111 25.3867C55.0651 25.1733 55.119 24.8534 55.119 24.3734C55.119 23.8934 55.0651 23.52 55.0111 23.3067C54.9572 23.0934 54.8493 22.9867 54.6875 22.9867C54.5257 22.9867 54.4179 23.0933 54.3639 23.2533C54.31 23.52 54.2561 23.84 54.2561 24.3734Z" fill="#FEFEFE"/>
<path d="M65.7438 26.6134L65.528 25.76H64.0719L63.8561 26.6134H62.5078L63.964 22.1334H65.582L67.0921 26.6134H65.7438ZM65.2584 24.7467L65.0426 24C64.9887 23.84 64.9348 23.6267 64.8808 23.36C64.8269 23.0934 64.773 22.9334 64.773 22.8267C64.773 22.9334 64.7191 23.0934 64.6651 23.36C64.6112 23.5734 64.5033 24.0534 64.2876 24.7467H65.2584Z" fill="#FEFEFE"/>
<path d="M74.0492 26.6134H72.4312L70.7593 23.4667H70.7054C70.7593 23.9467 70.7593 24.32 70.7593 24.5867V26.6134H69.6807V22.1334H71.2986L72.9706 25.2267C72.9166 24.8 72.9166 24.4267 72.9166 24.16V22.1334H73.9953V26.6134H74.0492Z" fill="#FEFEFE"/>
<path d="M81.4919 26.6134H79.8739L78.202 23.4667C78.2559 23.9467 78.2559 24.32 78.2559 24.5867V26.6134H77.1772V22.1334H78.7952L80.4671 25.2267C80.4132 24.8 80.4132 24.4267 80.4132 24.16V22.1334H81.4919V26.6134Z" fill="#FEFEFE"/>
<path d="M84.6201 26.6134V22.1334H85.8606V26.6134H84.6201Z" fill="#FEFEFE"/>
<path d="M96.5929 24.2667C96.5929 25.0134 96.3772 25.6 95.9457 25.9734C95.5142 26.4 94.921 26.56 94.2198 26.56H92.7637V22.08H94.3277C95.0288 22.08 95.6221 22.24 95.9996 22.6134C96.3772 22.9867 96.5929 23.5734 96.5929 24.2667ZM95.3524 24.32C95.3524 23.8933 95.2446 23.6267 95.0828 23.4134C94.921 23.2 94.6513 23.0933 94.3277 23.0933H93.9502V25.6H94.2198C94.5974 25.6 94.867 25.4934 95.0288 25.28C95.2446 25.0667 95.3524 24.7467 95.3524 24.32Z" fill="#FEFEFE"/>
<path d="M99.5596 26.6134V22.1334H100.8V26.6134H99.5596Z" fill="#FEFEFE"/>
<path d="M109.537 24H111.479V26.4C110.939 26.56 110.346 26.6667 109.753 26.6667C109.052 26.6667 108.512 26.4534 108.135 26.08C107.757 25.6534 107.542 25.12 107.542 24.3734C107.542 23.6267 107.757 23.0933 108.189 22.6667C108.62 22.24 109.213 22.08 109.915 22.08C110.184 22.08 110.454 22.08 110.724 22.1333C110.993 22.1867 111.209 22.24 111.371 22.3467L110.993 23.3067C110.67 23.1467 110.292 23.0933 109.915 23.0933C109.537 23.0933 109.267 23.2 109.106 23.4134C108.89 23.6267 108.836 23.9467 108.836 24.3734C108.836 24.8 108.944 25.12 109.106 25.3333C109.267 25.5467 109.537 25.6533 109.861 25.6533C110.022 25.6533 110.184 25.6533 110.346 25.6V24.9067H109.537V24Z" fill="#FEFEFE"/>
<path d="M115.793 24.96V26.6134H114.553V22.1334H116.009C117.249 22.1334 117.843 22.56 117.843 23.4667C117.843 24 117.573 24.3734 117.088 24.6934L118.382 26.6667H116.98L116.009 25.0134H115.793V24.96ZM115.793 24.0534H116.009C116.44 24.0534 116.656 23.8934 116.656 23.52C116.656 23.2 116.44 23.04 116.009 23.04H115.793V24.0534Z" fill="#FEFEFE"/>
<path d="M125.285 24.3734C125.285 25.12 125.123 25.7067 124.746 26.08C124.368 26.4534 123.829 26.6667 123.128 26.6667C122.427 26.6667 121.887 26.4534 121.51 26.08C121.132 25.7067 120.917 25.12 120.917 24.3734C120.917 23.6267 121.078 23.04 121.456 22.6667C121.833 22.2933 122.373 22.08 123.074 22.08C123.775 22.08 124.314 22.2933 124.692 22.6667C125.069 23.04 125.285 23.6267 125.285 24.3734ZM122.157 24.3734C122.157 25.2267 122.481 25.6533 123.074 25.6533C123.397 25.6533 123.613 25.5467 123.775 25.3333C123.937 25.12 123.991 24.8 123.991 24.3734C123.991 23.9467 123.937 23.5733 123.775 23.36C123.613 23.1467 123.397 23.04 123.074 23.04C122.481 23.04 122.157 23.4667 122.157 24.3734Z" fill="#FEFEFE"/>
<path d="M133.106 26.6134H131.65L131.218 24.64C131.218 24.5334 131.164 24.3734 131.11 24.16C131.056 23.9467 131.056 23.7334 131.002 23.5734C131.002 23.68 130.948 23.8934 130.948 24.0534C130.894 24.2667 130.894 24.4267 130.841 24.5867C130.787 24.7467 130.679 25.44 130.409 26.6134H128.953L127.82 22.1333H129.007L129.492 24.3734C129.6 24.8534 129.654 25.28 129.708 25.5467C129.708 25.3334 129.762 25.0667 129.87 24.6934C129.924 24.32 129.978 24.0534 130.085 23.7867L130.463 22.08H131.596L131.973 23.7867C132.027 24.0534 132.081 24.3734 132.189 24.7467C132.243 25.12 132.297 25.3867 132.351 25.5467C132.351 25.3334 132.459 24.9067 132.566 24.3734L133.052 22.1333H134.238L133.106 26.6134Z" fill="#FEFEFE"/>
<path d="M143.73 25.2267C143.73 25.4933 143.676 25.76 143.515 25.9733C143.353 26.1867 143.191 26.3467 142.921 26.4533C142.652 26.56 142.328 26.6133 141.951 26.6133C141.627 26.6133 141.411 26.6133 141.196 26.56C140.98 26.5067 140.764 26.4533 140.548 26.3467V25.28C140.764 25.3867 141.034 25.4933 141.249 25.5467C141.465 25.6 141.735 25.6533 141.951 25.6533C142.112 25.6533 142.274 25.6 142.328 25.5467C142.436 25.4933 142.436 25.3867 142.436 25.28C142.436 25.2267 142.436 25.1733 142.382 25.12C142.328 25.0667 142.274 25.0133 142.22 24.96C142.166 24.9067 141.951 24.8 141.627 24.6933C141.357 24.5867 141.088 24.4267 140.98 24.32C140.872 24.2133 140.71 24.0533 140.656 23.8933C140.602 23.7333 140.548 23.52 140.548 23.3067C140.548 22.88 140.71 22.56 140.98 22.3467C141.303 22.1333 141.681 22.0267 142.22 22.0267C142.706 22.0267 143.191 22.1333 143.676 22.3467L143.299 23.2533C142.867 23.04 142.49 22.9867 142.22 22.9867C142.058 22.9867 141.951 23.04 141.897 23.0933C141.843 23.1467 141.789 23.2 141.789 23.3067C141.789 23.4133 141.843 23.4667 141.951 23.52C142.058 23.5733 142.274 23.7333 142.706 23.8933C143.083 24.0533 143.353 24.2667 143.515 24.4267C143.676 24.6933 143.73 24.96 143.73 25.2267Z" fill="#FEFEFE"/>
<path d="M150.472 26.6134H149.232V24.8H147.829V26.6134H146.589V22.1334H147.829V23.7867H149.232V22.1334H150.472V26.6134Z" fill="#FEFEFE"/>
<path d="M157.807 24.3734C157.807 25.12 157.645 25.7067 157.267 26.08C156.89 26.4534 156.35 26.6667 155.649 26.6667C154.948 26.6667 154.409 26.4534 154.031 26.08C153.654 25.7067 153.438 25.12 153.438 24.3734C153.438 23.6267 153.6 23.04 153.977 22.6667C154.355 22.2933 154.894 22.08 155.595 22.08C156.296 22.08 156.836 22.2933 157.213 22.6667C157.591 23.04 157.807 23.6267 157.807 24.3734ZM154.732 24.3734C154.732 25.2267 155.056 25.6533 155.649 25.6533C155.973 25.6533 156.189 25.5467 156.35 25.3333C156.512 25.12 156.566 24.8 156.566 24.3734C156.566 23.9467 156.512 23.5733 156.35 23.36C156.189 23.1467 155.973 23.04 155.649 23.04C155.002 23.04 154.732 23.4667 154.732 24.3734Z" fill="#FEFEFE"/>
<path d="M164.063 23.5733C164.063 24.0533 163.901 24.48 163.631 24.7466C163.308 25.0133 162.93 25.1733 162.337 25.1733H162.013V26.6666H160.773V22.1866H162.337C162.93 22.1866 163.362 22.2933 163.631 22.56C163.955 22.72 164.063 23.0933 164.063 23.5733ZM162.013 24.1066H162.229C162.391 24.1066 162.553 24.0533 162.661 23.9466C162.768 23.84 162.822 23.68 162.822 23.52C162.822 23.2 162.661 23.0933 162.337 23.0933H162.013V24.1066Z" fill="#FEFEFE"/>
</svg>

<svg width="192" height="32" fill="none" xmlns="http://www.w3.org/2000/svg"><path d="M24.431 8c1.079 2.347 1.726 4.64 1.726 6.88 0 5.973-3.83 9.44-6.472 11.147h.162c5.393-.374 9.007-2.294 11.164-5.814l.485-.8c1.24-2.4 1.888-5.6 1.888-9.44 0-1.546-.108-3.253-.324-4.96-1.833.534-6.31 1.92-8.629 2.987z" fill="#ACCD72"/><path d="M7.874 14.88c0-2.187.593-4.533 1.726-6.88C7.28 6.933 2.804 5.547.97 5.013a40.884 40.884 0 0 0-.323 4.96c0 3.84.647 7.04 1.888 9.44l.215.374.27.426c2.157 3.52 5.77 5.44 11.164 5.814h.162c-2.643-1.707-6.472-5.174-6.472-11.147z" fill="#AECF7A"/><path d="M16.989.267c-1.726 1.6-7.713 7.626-7.713 14.613 0 7.307 6.418 10.56 7.713 11.147 1.294-.587 7.712-3.84 7.712-11.147 0-6.987-5.986-13.013-7.712-14.613z" fill="#51AD32"/><path d="M17.043 31.733c8.251 0 15.209-2.346 17.042-4.426H0c1.834 2.08 8.791 4.426 17.043 4.426z" fill="#AADAEA"/><path d="M42.23 16.693V2.933h-5.178v13.76h5.177zM50.426 4.96c.216.107.324.32.324.64v8.373c0 .267-.108.48-.324.587-.216.107-.593.16-1.133.16h-.27V4.8c.702 0 1.187.053 1.403.16zm-.863 11.733c2.32 0 3.937-.266 4.908-.8.97-.533 1.456-1.386 1.456-2.613V6.347c0-1.227-.485-2.134-1.348-2.614-.917-.48-2.481-.746-4.692-.746h-6.04v13.76l5.716-.054zm14.508-8.426c-.216.106-.593.16-1.133.16h-.27V4.693c.702 0 1.133.054 1.403.16.216.107.324.32.324.64V7.68c0 .267-.108.48-.324.587zm-1.402 8.426v-6.346h.054c.539 0 .97.106 1.24.266.27.214.432.48.432.854v3.466c0 .32.053.64.107.907.108.267.216.533.378.8h5.124a5.352 5.352 0 0 1-.378-.8c-.108-.267-.108-.587-.108-.853V11.52c0-.8-.323-1.387-.863-1.707-.593-.32-1.618-.533-3.128-.586v-.054c1.348-.053 2.32-.266 2.966-.64.648-.373 1.025-.96 1.025-1.653V5.44c0-.853-.485-1.493-1.402-1.92-.97-.373-2.481-.587-4.584-.587h-6.04v13.76h5.177zm8.144-3.253c0 1.28.485 2.187 1.402 2.72.917.533 2.48.8 4.638.8 2.157 0 3.721-.267 4.638-.8.917-.533 1.402-1.44 1.402-2.72V6.187c0-1.28-.485-2.187-1.402-2.72-.917-.534-2.48-.8-4.638-.8-2.157 0-3.721.266-4.638.8-.917.533-1.402 1.44-1.402 2.72v7.253zm5.339-8.693c.162-.107.377-.16.647-.16.324 0 .54.053.701.16.162.106.216.266.216.48v8.96c0 .213-.054.426-.216.533-.162.107-.377.16-.7.16-.325 0-.54-.053-.648-.16-.162-.107-.216-.267-.216-.533V5.28c.054-.213.108-.427.216-.533zm14.885 4.48c-.215.106-.593.16-1.132.16h-.324V4.693h.216c.593 0 1.025.054 1.186.16.216.107.324.32.324.64v3.2c.054.267-.054.427-.27.534zm-1.402 7.466V11.36h.593c2.266 0 3.883-.213 4.854-.693.971-.48 1.456-1.227 1.456-2.294V5.44c0-.853-.485-1.493-1.456-1.867-.97-.373-2.48-.586-4.584-.586h-6.04v13.76h5.177v-.054zm7.982-3.253c0 1.28.486 2.187 1.402 2.72.917.533 2.481.8 4.639.8 2.157 0 3.721-.267 4.638-.8.917-.533 1.402-1.44 1.402-2.72V6.187c0-1.28-.485-2.187-1.402-2.72-.917-.534-2.481-.8-4.638-.8-2.158 0-3.722.266-4.639.8-.916.533-1.402 1.44-1.402 2.72v7.253zm5.393-8.693c.162-.107.378-.16.648-.16.323 0 .593.053.701.16.161.106.215.266.215.48v8.96c0 .213-.054.426-.215.533-.162.107-.378.16-.701.16-.324 0-.54-.053-.648-.16-.161-.107-.215-.267-.215-.533V5.28c0-.213.054-.427.215-.533zm12.351 11.946v-8.16c0-.266 0-.64-.054-1.066a43.314 43.314 0 0 1-.162-1.494h.162c.162.694.324 1.334.485 1.92.162.587.27 1.014.378 1.334l2.643 7.466h6.094V2.933h-4.045l.054 5.707c0 .32 0 .853.054 1.547.054.746.108 1.546.162 2.56h-.216c-.108-.854-.162-1.547-.324-2.24a14.058 14.058 0 0 0-.431-1.76l-1.834-5.814h-7.119v13.76h4.153zm16.341 0V2.933h-5.177v13.76h5.177zm1.565-3.253c0 1.28.485 2.187 1.402 2.72.917.533 2.481.8 4.638.8s3.721-.267 4.638-.8c.917-.533 1.402-1.44 1.402-2.72v-1.973h-5.177v2.773c0 .213-.054.427-.216.533-.162.107-.377.16-.701.16-.324 0-.539-.053-.647-.16a.707.707 0 0 1-.216-.533V5.28c0-.213.054-.427.216-.48.108-.107.323-.16.647-.16s.539.053.701.16a.672.672 0 0 1 .216.48v2.453h5.177V6.24c0-1.28-.485-2.187-1.402-2.72-.917-.533-2.481-.8-4.638-.8s-3.667.267-4.638.8c-.917.533-1.402 1.44-1.402 2.72v7.2zm17.528 3.253l.647-3.68h2.589l.485 3.68h5.339l-3.074-13.76h-6.634l-4.152 13.76h4.8zm1.887-9.866c0-.107.054-.32.108-.64s.054-.747.108-1.28h.216v.64c0 .64.054 1.066.108 1.28l.593 4.213h-1.942l.809-4.213z" fill="#43A3DB"/><path d="M164.818 13.973V16.8h-3.775v-2.827h3.775zm6.688-10.986V16.8h-5.178V2.987h5.178zm12.512 0V5.76h-3.074V16.8h-5.177V5.76h-3.075V2.987h11.326z" fill="#39A3DC"/><path d="M176.521 29.333H37.051V19.04h146.751l-7.281 10.293z" fill="#D40A5C"/><path d="M50.427 26.613h-3.29v-.8l1.079-1.12c.323-.32.539-.533.593-.693.054-.16.162-.213.216-.32.053-.107.053-.16.053-.267a.405.405 0 0 0-.107-.266c-.054-.054-.162-.107-.324-.107s-.27.053-.431.107a2.956 2.956 0 0 0-.486.373l-.647-.8c.216-.213.431-.373.593-.427.162-.106.324-.16.54-.213.215-.053.377-.053.647-.053s.54.053.809.16c.216.106.431.266.54.426.107.214.215.427.215.64 0 .16 0 .32-.054.48-.054.16-.108.32-.216.427-.108.16-.216.32-.377.48-.162.16-.486.48-.971.907v.053h1.726v1.013h-.108zm5.879-2.24c0 .8-.108 1.387-.378 1.76-.27.374-.701.534-1.24.534-.54 0-.971-.214-1.24-.587-.27-.373-.432-.96-.432-1.707 0-.8.108-1.386.377-1.76.27-.373.701-.533 1.24-.533.54 0 .971.213 1.241.587.324.373.431.96.431 1.706zm-2.05 0c0 .48.054.854.108 1.067.054.213.162.267.324.267.161 0 .27-.107.323-.32.054-.214.108-.534.108-1.014s-.054-.853-.108-1.066c-.054-.214-.162-.32-.324-.32-.161 0-.27.106-.323.266a5.185 5.185 0 0 0-.108 1.12zm11.488 2.24l-.216-.853h-1.456l-.216.853h-1.348l1.456-4.48h1.618l1.51 4.48h-1.348zm-.486-1.866L65.043 24a5.503 5.503 0 0 1-.162-.64c-.054-.267-.108-.427-.108-.533 0 .106-.054.266-.108.533-.054.213-.162.693-.377 1.387h.97zm8.792 1.866h-1.62l-1.672-3.146h-.054c.054.48.054.853.054 1.12v2.026H69.68v-4.48h1.618l1.672 3.094c-.054-.427-.054-.8-.054-1.067v-2.027h1.078v4.48h.054zm7.442 0h-1.618l-1.672-3.146c.054.48.054.853.054 1.12v2.026h-1.079v-4.48h1.618l1.672 3.094c-.054-.427-.054-.8-.054-1.067v-2.027h1.079v4.48zm3.128 0v-4.48h1.24v4.48h-1.24zm11.973-2.346c0 .746-.216 1.333-.647 1.706-.432.427-1.025.587-1.726.587h-1.456v-4.48h1.564c.7 0 1.294.16 1.672.533.377.374.593.96.593 1.654zm-1.24.053c0-.427-.108-.693-.27-.907-.162-.213-.432-.32-.755-.32h-.378V25.6h.27c.377 0 .647-.107.809-.32.216-.213.323-.533.323-.96zm4.207 2.293v-4.48h1.24v4.48h-1.24zM109.537 24h1.942v2.4c-.54.16-1.133.267-1.726.267-.701 0-1.241-.214-1.618-.587-.378-.427-.593-.96-.593-1.707 0-.746.215-1.28.647-1.706.431-.427 1.024-.587 1.726-.587.269 0 .539 0 .809.053.269.054.485.107.647.214l-.378.96c-.323-.16-.701-.214-1.078-.214-.378 0-.648.107-.809.32-.216.214-.27.534-.27.96 0 .427.108.747.27.96.161.214.431.32.755.32.161 0 .323 0 .485-.053v-.693h-.809V24zm6.256.96v1.653h-1.24v-4.48h1.456c1.24 0 1.834.427 1.834 1.334 0 .533-.27.906-.755 1.226l1.294 1.974h-1.402l-.971-1.654h-.216v-.053zm0-.907h.216c.431 0 .647-.16.647-.533 0-.32-.216-.48-.647-.48h-.216v1.013zm9.492.32c0 .747-.162 1.334-.539 1.707-.378.373-.917.587-1.618.587-.701 0-1.241-.214-1.618-.587-.378-.373-.593-.96-.593-1.707 0-.746.161-1.333.539-1.706.377-.374.917-.587 1.618-.587.701 0 1.24.213 1.618.587.377.373.593.96.593 1.706zm-3.128 0c0 .854.324 1.28.917 1.28.323 0 .539-.106.701-.32.162-.213.216-.533.216-.96 0-.426-.054-.8-.216-1.013-.162-.213-.378-.32-.701-.32-.593 0-.917.427-.917 1.333zm10.949 2.24h-1.456l-.432-1.973c0-.107-.054-.267-.108-.48-.054-.213-.054-.427-.108-.587 0 .107-.054.32-.054.48-.054.214-.054.374-.107.534-.054.16-.162.853-.432 2.026h-1.456l-1.133-4.48h1.187l.485 2.24c.108.48.162.907.216 1.174 0-.214.054-.48.162-.854.054-.373.108-.64.215-.906l.378-1.707h1.133l.377 1.707c.054.266.108.586.216.96.054.373.108.64.162.8 0-.214.108-.64.215-1.174l.486-2.24h1.186l-1.132 4.48zm10.624-1.386c0 .266-.054.533-.215.746-.162.214-.324.374-.594.48-.269.107-.593.16-.97.16-.324 0-.54 0-.755-.053a3.073 3.073 0 0 1-.648-.213V25.28c.216.107.486.213.701.267.216.053.486.106.702.106.161 0 .323-.053.377-.106.108-.054.108-.16.108-.267 0-.053 0-.107-.054-.16l-.162-.16c-.054-.053-.269-.16-.593-.267-.27-.106-.539-.266-.647-.373-.108-.107-.27-.267-.324-.427a1.896 1.896 0 0 1-.108-.586c0-.427.162-.747.432-.96.323-.214.701-.32 1.24-.32.486 0 .971.106 1.456.32l-.377.906a2.432 2.432 0 0 0-1.079-.266c-.162 0-.269.053-.323.106-.054.054-.108.107-.108.214 0 .106.054.16.162.213.107.053.323.213.755.373.377.16.647.374.809.534.161.266.215.533.215.8zm6.742 1.386h-1.24V24.8h-1.403v1.813h-1.24v-4.48h1.24v1.654h1.403v-1.654h1.24v4.48zm7.335-2.24c0 .747-.162 1.334-.54 1.707-.377.373-.917.587-1.618.587-.701 0-1.24-.214-1.618-.587-.377-.373-.593-.96-.593-1.707 0-.746.162-1.333.539-1.706.378-.374.917-.587 1.618-.587.701 0 1.241.213 1.618.587.378.373.594.96.594 1.706zm-3.075 0c0 .854.324 1.28.917 1.28.324 0 .54-.106.701-.32.162-.213.216-.533.216-.96 0-.426-.054-.8-.216-1.013-.161-.213-.377-.32-.701-.32-.647 0-.917.427-.917 1.333zm9.331-.8c0 .48-.162.907-.432 1.174-.323.266-.701.426-1.294.426h-.324v1.494h-1.24v-4.48h1.564c.593 0 1.025.106 1.294.373.324.16.432.533.432 1.013zm-2.05.534h.216a.617.617 0 0 0 .432-.16.605.605 0 0 0 .161-.427c0-.32-.161-.427-.485-.427h-.324v1.014z" fill="#FEFEFE"/></svg>
